/* XPM */
static char * natronplusIcon[] = {
"32 32 4 1",
"  c #14161c",
". c #1e2430",
"+ c #c8b07a",
"X c #e8d9a8",
"                                ",
"                                ",
"                                ",
"        ++++++XXXXX+++++        ",
"     +++......XXXXX.....+++     ",
"    +.........XXXXX........+    ",
"    +.........XXXXX........+    ",
"    +.........XXXXX........+    ",
"   +..........XXXXX.........+   ",
"   +..........XXXXX.........+   ",
"   +..........XXXXX.........+   ",
"   +..........XXXXX.........+   ",
"   +..........XXXXX.........+   ",
"   +..........XXXXX.........+   ",
"   XXXXXXXXXXXXXXXXXXXXXXXXXX   ",
"   XXXXXXXXXXXXXXXXXXXXXXXXXX   ",
"   XXXXXXXXXXXXXXXXXXXXXXXXXX   ",
"   XXXXXXXXXXXXXXXXXXXXXXXXXX   ",
"   XXXXXXXXXXXXXXXXXXXXXXXXXX   ",
"   +..........XXXXX.........+   ",
"   +..........XXXXX.........+   ",
"   +..........XXXXX.........+   ",
"   +..........XXXXX.........+   ",
"   +..........XXXXX.........+   ",
"    +.........XXXXX........+    ",
"    +.........XXXXX........+    ",
"    +.........XXXXX........+    ",
"     +++......XXXXX.....+++     ",
"        ++++++XXXXX+++++        ",
"                                ",
"                                ",
"                                "
};
